site/static/docs/images/icons/teams.svg

<svg fill="none" height="26" viewBox="0 0 26 26" width="26" xmlns="http://www.w3.org/2000/svg"><g fill="#0075ff"><circle cx="13" cy="13" opacity=".15" r="13"/><path clip-rule="evenodd" d="m10.5 8.5c-.53044 0-1.03915.21071-1.41422.58578-.37507.37508-.58579.88378-.58579 1.41422 0 .5304.21072 1.0391.58579 1.4142s.88378.5858 1.41422.5858c.5304 0 1.0391-.2107 1.4142-.5858s.5858-.8838.5858-1.4142c0-.53044-.2107-1.03914-.5858-1.41422-.3751-.37507-.8838-.58578-1.4142-.58578zm-3.50001 2c-.00007-.58013.14406-1.15118.41943-1.66179.27537-.5106.67334-.94475 1.15812-1.2634s1.04117-.5118 1.61916-.56207c.5779-.05028 1.1593.04389 1.6918.27403.5325.23015.9995.58905 1.3589 1.04444.3594.45538.6.99296.7001 1.56438.1001.57141.0566 1.15881-.1266 1.70921-.1832.5505-.5003 1.0467-.9229 1.4442.7968.3866 1.4887.9597 2.0169 1.6706.5282.711.8771 1.5389 1.0171 2.4134.0312.1965-.017.3974-.134.5584-.1169.161-.293.2689-.4895.3001s-.3974-.017-.5584-.134c-.161-.1169-.2689-.293-.3001-.4895-.1513-.9386-.632-1.7927-1.3558-2.4092-.7238-.6164-1.6435-.955-2.5942-.955-.95076 0-1.87044.3386-2.59425.955-.72381.6165-1.20444 1.4706-1.35576 2.4092-.01549.0973-.05001.1906-.10156.2746-.05156.084-.11915.157-.19891.2148-.07977.0579-.17015.0994-.26598.1223-.09583.023-.19524.0268-.29255.0113s-.19061-.05-.27459-.1016c-.08397-.0515-.15696-.1191-.21481-.1989-.05785-.0797-.09943-.1701-.12235-.266-.02292-.0958-.02674-.1952-.01125-.2925.14034-.8742.48938-1.7016 1.01753-2.4122.52816-.7106 1.21986-1.2834 2.01647-1.6698-.34847-.327-.62609-.722-.81564-1.1606-.18956-.4387-.28703-.9116-.28636-1.3894zm9.00001-1.5c-.1989 0-.3897.07901-.5303.21967-.1407.14065-.2197.33141-.2197.53033 0 .19891.079.3897.2197.5303.1406.1407.3314.2197.5303.2197.3383 0 .6667.1144.9319.3247.2651.2102.4514.5038.5285.8333.0771.3294.0406.6753-.1036.9813-.1442.3061-.3876.5545-.6908.7047-.125.0622-.2302.158-.3037.2768-.0735.1187-.1124.2556-.1123.3952v.352c-.0002.1685.0563.3321.1604.4645.1041.1325.2498.226.4136.2655 1.2.289 2.162 1.2 2.522 2.372.0285.0945.0755.1825.1381.2589.0627.0763.1398.1396.227.1861.0871.0464.1826.0752.2809.0847s.1975-.0006.292-.0295c.0944-.029.1822-.0763.2582-.1393.0761-.063.139-.1404.1851-.2278.0461-.0873.0745-.1829.0835-.2813.0091-.0983-.0014-.1975-.0308-.2918-.2002-.6494-.5304-1.2513-.9705-1.769-.4401-.5178-.9809-.9407-1.5895-1.243.3909-.4301.6486-.9644.7415-1.5381.093-.5738.0173-1.1621-.2178-1.6936-.2352-.5316-.6197-.98332-1.1067-1.30043-.4871-.31711-1.0558-.48591-1.637-.48587z" fill-rule="evenodd"/></g></svg>

<svg width="26" height="26" viewBox="0 0 26 26" fill="none" xmlns="http://www.w3.org/2000/svg">
<circle opacity="0.15" cx="13" cy="13" r="13" fill="#0075ff"/>
<path fill-rule="evenodd" clip-rule="evenodd" d="M10.5 8.5C9.96956 8.5 9.46085 8.71071 9.08578 9.08578C8.71071 9.46086 8.49999 9.96956 8.49999 10.5C8.49999 11.0304 8.71071 11.5391 9.08578 11.9142C9.46085 12.2893 9.96956 12.5 10.5 12.5C11.0304 12.5 11.5391 12.2893 11.9142 11.9142C12.2893 11.5391 12.5 11.0304 12.5 10.5C12.5 9.96956 12.2893 9.46086 11.9142 9.08578C11.5391 8.71071 11.0304 8.5 10.5 8.5ZM6.99999 10.5C6.99992 9.91987 7.14405 9.34882 7.41942 8.83821C7.69479 8.32761 8.09276 7.89346 8.57754 7.57481C9.06232 7.25616 9.61871 7.06301 10.1967 7.01274C10.7746 6.96246 11.356 7.05663 11.8885 7.28677C12.421 7.51692 12.888 7.87582 13.2474 8.33121C13.6068 8.78659 13.8474 9.32417 13.9475 9.89559C14.0476 10.467 14.0041 11.0544 13.8209 11.6048C13.6377 12.1553 13.3206 12.6515 12.898 13.049C13.6948 13.4356 14.3867 14.0087 14.9149 14.7196C15.4431 15.4306 15.792 16.2585 15.932 17.133C15.9632 17.3295 15.915 17.5304 15.798 17.6914C15.6811 17.8524 15.505 17.9603 15.3085 17.9915C15.112 18.0227 14.9111 17.9745 14.7501 17.8575C14.5891 17.7406 14.4812 17.5645 14.45 17.368C14.2987 16.4294 13.818 15.5753 13.0942 14.9588C12.3704 14.3424 11.4507 14.0038 10.5 14.0038C9.54924 14.0038 8.62956 14.3424 7.90575 14.9588C7.18194 15.5753 6.70131 16.4294 6.54999 17.368C6.5345 17.4653 6.49998 17.5586 6.44843 17.6426C6.39687 17.7266 6.32928 17.7996 6.24952 17.8574C6.16975 17.9153 6.07937 17.9568 5.98354 17.9797C5.88771 18.0027 5.7883 18.0065 5.69099 17.991C5.59368 17.9755 5.50038 17.941 5.4164 17.8894C5.33243 17.8379 5.25944 17.7703 5.20159 17.6905C5.14374 17.6108 5.10216 17.5204 5.07924 17.4245C5.05632 17.3287 5.0525 17.2293 5.06799 17.132C5.20833 16.2578 5.55737 15.4304 6.08552 14.7198C6.61368 14.0092 7.30538 13.4364 8.10199 13.05C7.75352 12.723 7.4759 12.328 7.28635 11.8894C7.09679 11.4507 6.99932 10.9778 6.99999 10.5ZM16 9C15.8011 9 15.6103 9.07901 15.4697 9.21967C15.329 9.36032 15.25 9.55108 15.25 9.75C15.25 9.94891 15.329 10.1397 15.4697 10.2803C15.6103 10.421 15.8011 10.5 16 10.5C16.3383 10.5 16.6667 10.6144 16.9319 10.8247C17.197 11.0349 17.3833 11.3285 17.4604 11.658C17.5375 11.9874 17.501 12.3333 17.3568 12.6393C17.2126 12.9454 16.9692 13.1938 16.666 13.344C16.541 13.4062 16.4358 13.502 16.3623 13.6208C16.2888 13.7395 16.2499 13.8764 16.25 14.016V14.368C16.2498 14.5365 16.3063 14.7001 16.4104 14.8325C16.5145 14.965 16.6602 15.0585 16.824 15.098C18.024 15.387 18.986 16.298 19.346 17.47C19.3745 17.5645 19.4215 17.6525 19.4841 17.7289C19.5468 17.8052 19.6239 17.8685 19.7111 17.915C19.7982 17.9614 19.8937 17.9902 19.992 17.9997C20.0903 18.0092 20.1895 17.9991 20.284 17.9702C20.3784 17.9412 20.4662 17.8939 20.5422 17.8309C20.6183 17.7679 20.6812 17.6905 20.7273 17.6031C20.7734 17.5158 20.8018 17.4202 20.8108 17.3218C20.8199 17.2235 20.8094 17.1243 20.78 17.03C20.5798 16.3806 20.2496 15.7787 19.8095 15.261C19.3694 14.7432 18.8286 14.3203 18.22 14.018C18.6109 13.5879 18.8686 13.0536 18.9615 12.4799C19.0545 11.9061 18.9788 11.3178 18.7437 10.7863C18.5085 10.2547 18.124 9.80298 17.637 9.48587C17.1499 9.16876 16.5812 8.99996 16 9Z" fill="#0075ff"/>
</svg>
